packages/crayons-icon/icons/code.svg

<?xml version="1.0" encoding="UTF-8"?>
<svg width="16px" height="16px" viewBox="0 0 16 16" version="1.1" xmlns="http://www.w3.org/2000/svg" xmlns:xlink="http://www.w3.org/1999/xlink">
    <!-- Generator: Sketch 52.6 (67491) - http://www.bohemiancoding.com/sketch -->
    <title>icon/code</title>
    <desc>Created with Sketch.</desc>
    <g id="Icons-✅" stroke="none" stroke-width="1" fill="none" fill-rule="evenodd">
        <g id="Icons" transform="translate(-326.000000, -2388.000000)" fill="currentColor">
            <g id="icon/code" transform="translate(326.000000, 2388.000000)">
                <g id="code">
                    <path d="M5,16 L4.22,16 C2.74377333,16.0000103 1.54550831,14.8062164 1.54,13.33 L1.54,10.66 C1.54015765,9.81257534 1.08595276,9.03012154 0.35,8.61 C0.135025181,8.48196028 0.00331804249,8.25021659 0.00331804249,8 C0.00331804249,7.74978341 0.135025181,7.51803972 0.35,7.39 C1.07064989,6.97885968 1.52247066,6.21949704 1.54,5.39 L1.54,2.67 C1.54550831,1.19378361 2.74377333,-1.02767305e-05 4.22,4.09083303e-14 L5,4.09083303e-14 C5.18737809,-0.00267710405 5.36800566,0.069889151 5.50145193,0.201455898 C5.6348982,0.333022645 5.71001912,0.512602785 5.71,0.7 C5.71001912,0.887397215 5.6348982,1.06697736 5.50145193,1.1985441 C5.36800566,1.33011085 5.18737809,1.4026771 5,1.4 L4.22,1.4 C3.88144576,1.39733414 3.55584133,1.52995952 3.31550293,1.76842028 C3.07516453,2.00688104 2.9399895,2.33143527 2.94,2.67 L2.94,5.34 C2.93958237,6.3372559 2.54405183,7.29372065 1.84,8 C2.54405183,8.70627935 2.93958237,9.6627441 2.94,10.66 L2.94,13.33 C2.9399895,13.6685647 3.07516453,13.993119 3.31550293,14.2315797 C3.55584133,14.4700405 3.88144576,14.6026659 4.22,14.6 L5,14.6 C5.38659932,14.6 5.7,14.9134007 5.7,15.3 C5.7,15.6865993 5.38659932,16 5,16 Z M11.79,16 L11,16 C10.6134007,16 10.3,15.6865993 10.3,15.3 C10.3,14.9134007 10.6134007,14.6 11,14.6 L11.79,14.6 C12.1285542,14.6026659 12.4541587,14.4700405 12.6944971,14.2315797 C12.9348355,13.993119 13.0700105,13.6685647 13.07,13.33 L13.07,10.66 C13.0704176,9.6627441 13.4659482,8.70627935 14.17,8 C13.4659482,7.29372065 13.0704176,6.3372559 13.07,5.34 L13.07,2.67 C13.0700105,2.33143527 12.9348355,2.00688104 12.6944971,1.76842028 C12.4541587,1.52995952 12.1285542,1.39733414 11.79,1.4 L11,1.4 C10.6134007,1.39999999 10.3,1.08659932 10.3,0.7 C10.3,0.313400681 10.6134007,8.14699805e-09 11,2.66453526e-14 L11.79,2.66453526e-14 C13.2662267,-1.02767305e-05 14.4644917,1.19378361 14.47,2.67 L14.47,5.34 C14.4698423,6.18742466 14.9240472,6.96987846 15.66,7.39 C15.8700047,7.52168044 15.9975082,7.75212564 15.9975082,8 C15.9975082,8.24787436 15.8700047,8.47831956 15.66,8.61 C14.9240472,9.03012154 14.4698423,9.81257534 14.47,10.66 L14.47,13.33 C14.4644917,14.8062164 13.2662267,16.0000103 11.79,16 Z" id="Combined-Shape"></path>
                </g>
            </g>
        </g>
    </g>
</svg>

<svg viewBox="0 0 16 16"><path d="M5 16h-.78a2.68 2.68 0 0 1-2.68-2.67v-2.67A2.36 2.36 0 0 0 .35 8.61a.71.71 0 0 1 0-1.22 2.36 2.36 0 0 0 1.19-2V2.67A2.68 2.68 0 0 1 4.22 0H5a.7.7 0 1 1 0 1.4h-.78a1.27 1.27 0 0 0-1.28 1.27v2.67A3.77 3.77 0 0 1 1.84 8a3.77 3.77 0 0 1 1.1 2.66v2.67a1.27 1.27 0 0 0 1.28 1.27H5A.7.7 0 0 1 5 16zm6.79 0H11a.7.7 0 0 1 0-1.4h.79a1.27 1.27 0 0 0 1.28-1.27v-2.67A3.77 3.77 0 0 1 14.17 8a3.77 3.77 0 0 1-1.1-2.66V2.67a1.27 1.27 0 0 0-1.28-1.27H11A.7.7 0 0 1 11 0h.79a2.68 2.68 0 0 1 2.68 2.67v2.67c0 .847.454 1.63 1.19 2.05a.72.72 0 0 1 0 1.22 2.36 2.36 0 0 0-1.19 2.05v2.67A2.68 2.68 0 0 1 11.79 16z" fill="currentColor" fill-rule="evenodd"/></svg>
